packages/core/src/svgs/tokens/mono/ZKP.svg

<svg width="24" height="24" viewBox="0 0 24 24" fill="none" xmlns="http://www.w3.org/2000/svg">
<path d="M12 22C14.6522 22 17.1957 20.9464 19.071 19.071C20.9464 17.1957 22 14.6522 22 12C22 9.34785 20.9464 6.80429 19.071 4.92892C17.1957 3.05357 14.6522 2 12 2C9.34785 2 6.80429 3.05357 4.92892 4.92892C3.05357 6.80429 2 9.34785 2 12C2 14.6522 3.05357 17.1957 4.92892 19.071C6.80429 20.9464 9.34785 22 12 22ZM4.35293 7.56469L4.25293 7.59411C5.02696 6.22723 6.14788 5.08871 7.50254 4.29349C8.85721 3.49826 10.3977 3.07446 11.9685 3.06486C13.5392 3.05527 15.0848 3.46021 16.4491 4.23883C17.8133 5.01744 18.9481 6.14217 19.7387 7.4995C20.5295 8.85682 20.9481 10.3987 20.9523 11.9696C20.9567 13.5403 20.5466 15.0846 19.7634 16.4461C18.9803 17.8078 17.8517 18.9388 16.4917 19.7249C15.1318 20.5111 13.5885 20.9245 12.0176 20.9235C11.4009 20.922 10.7964 20.7513 10.2701 20.4299C9.74356 20.1086 9.31546 19.6491 9.03214 19.1013C8.74884 18.5535 8.62127 17.9385 8.66331 17.3232C8.70535 16.7079 8.91539 16.1159 9.27058 15.6117L9.27648 15.5999C9.76401 14.9133 10.4921 14.4352 11.3161 14.2607C12.1402 14.0864 12.9995 14.2285 13.7235 14.6588L15.0765 15.9941C15.2353 16.2294 16.5647 16.1529 16.8 15.9941C16.9883 15.8765 16.9765 15.2589 16.9647 15.0059C16.9647 14.9411 16.9883 14.8706 17.0411 14.8294C17.2176 14.6706 17.6176 14.3176 17.7411 14.194C17.8587 14.0764 17.8883 13.6471 17.8942 13.4412C17.8942 13.3764 17.9294 13.3118 17.9882 13.2647C18.2059 13.0882 18.3059 12.7999 18.3412 12.647C18.3503 12.6177 18.3529 12.5867 18.3489 12.5562C18.3448 12.5257 18.3341 12.4965 18.3176 12.4705L17.0823 10.5059C17.054 10.4603 17.0436 10.4058 17.0529 10.353C17.0706 10.1942 17.0647 9.81177 16.6412 9.33523C16.0941 8.70587 13.4294 7.21763 13.0411 7.14117C12.7471 7.08234 12.3235 7.11175 12.1295 7.1294C12.0951 7.13436 12.0601 7.13108 12.0275 7.11982C11.9947 7.10857 11.9652 7.08967 11.9411 7.0647C11.6765 6.79999 10.8118 5.94705 10.6117 5.80587C10.3882 5.65881 10.2882 5.74706 10.2294 5.80587H10.2235C10.0785 6.10821 9.98307 6.43198 9.9412 6.76469C9.93105 6.8229 9.89948 6.87517 9.85254 6.91113C9.80573 6.94709 9.74699 6.96411 9.68824 6.95881C8.18234 6.80587 5.67647 7.27646 4.35882 7.56469H4.35293Z" fill="white"/>
</svg>

<svg xmlns="http://www.w3.org/2000/svg" width="24" height="24" fill="none" viewBox="0 0 24 24">
    <path fill="#fff" d="M12 22a10 10 0 1 0 0-20 10 10 0 0 0 0 20M4.353 7.565l-.1.03a8.93 8.93 0 1 1 7.765 13.329 3.37 3.37 0 0 1-3.355-3.6 3.37 3.37 0 0 1 .608-1.712l.005-.012a3.354 3.354 0 0 1 4.448-.941l1.352 1.335c.16.235 1.489.159 1.724 0 .188-.117.177-.735.165-.988 0-.065.023-.135.076-.177.177-.158.577-.511.7-.635.118-.118.147-.547.153-.753 0-.065.035-.13.094-.176.218-.177.318-.465.353-.618a.21.21 0 0 0-.023-.177l-1.236-1.964a.22.22 0 0 1-.03-.153c.019-.159.013-.541-.41-1.018-.548-.63-3.213-2.117-3.6-2.194-.295-.059-.719-.03-.912-.012a.22.22 0 0 1-.189-.064c-.264-.265-1.13-1.118-1.33-1.26-.223-.146-.323-.058-.382 0h-.005c-.146.303-.24.627-.283.96a.235.235 0 0 1-.253.194c-1.506-.153-4.012.317-5.33.606z"/>
</svg>
